X:1
T:Title
%%score { 1 | ( 2 3 ) }
L:1/8
M:4/4
K:G
V:1 treble nm="Grand Piano"
V:2 bass 
V:3 bass 
V:1
 z4 z2[Q:1/4=100] D2 | G2 (3GAB B2 B>A | G6 [FA][GB] | [Ac]2 [Ac]>[Ac] [Ac]2 G>[FA] | B6 Bc | %5
 d2 d>d d2 c>B | [Ge]6 [EGc]2 | [DGB]2 [B,G]>[CGA] [DGB]2 [DGB]>[CDA] |[M:3/4] [G,B,DG]6 | %9
[M:1/4] [B,DG]2 |[M:4/4] [FA]2 (3[FA][FA][FA] [FA]2 [B,G]>[DFA] | [DGB]6 [GB]2 | %12
 [Fc]2 (3[Fc][Fc][Fc] [Fc]2 [GB]>[Fc] | [Gd]6 [DGB][DAc] | [DBd][DBd][DAc][DGB] [DAc]2 [DGB][DFc] | %15
 [DGd][DGB][DG][DFA] [DGB]2 [EGc]2 | [DGB]2 (3[B,DG][CDA][CGB] [CFA]2 [DGB]>[CDA] | %17
[M:3/4] [G,B,DG]6 |] %18
V:2
 z4 z2 [G,B,]2 | [G,B,D]2 (3[G,B,D][G,CD][G,D][K:treble] [G,DG]2 [G,DG]>[K:bass][G,CD] | %2
 [G,B,D]6 [D,D]2 | [D,D]2 [D,D]>[D,D] [D,D]2 [D,B,]>[D,C] | z4 z2 [G,G]2 | %5
 [G,B,G]2 [G,B,G]>[G,B,G] [G,B,G]2 [G,A,G]>[G,G] | [C,C]6 C,2 | D,2 D,>D, D,2 D,>D, |[M:3/4] G,,6 | %9
[M:1/4] G,2 |[M:4/4] [D,D]2 (3[D,D][D,D][D,D] [D,D]2 D,>D, | G,6 G,2 | %12
 [D,A,]2 (3[D,A,][D,A,][D,A,] [D,A,]2 [D,G,]>[D,A,] | [G,B,]6 G,G, | G,G,F,G, D,2 G,A, | %15
 B,G,B,,D, G,2 C,2 | D,2 (3D,D,D, D,2 D,>D, |[M:3/4] G,,6 |] %18
V:3
 x8 | x4[K:treble] x7/2[K:bass] x/ | x8 | x8 | [G,DG]6 z A, | x8 | x8 | x8 |[M:3/4] x6 | %9
[M:1/4] x2 |[M:4/4] x8 | x8 | x8 | x8 | x8 | x8 | x8 |[M:3/4] x6 |] %18

